X: 4788
T: Boys Of Portaferry, The
R: reel
M: 4/4
K: Gmajor
||G2 BG AcBA|GABG GEDE|G2 BG ABce|dBgB c2 BA|
G2 BG AcBA|GABG GEDE|G2 BG ABce|dBAB G3 A:|
|:(3Bcd gd edgd|Bdgd e2 dc|(3Bcd gd edef|gedB c2 BA|
(3Bcd gd edgd|Bdgd e2 dc|(3Bcd ef g3 e||1 dBAB c2 BA:|2 dBAB G4||

